X:1
T:Nun komm der Heiden Heiland
%%score [ ( 1 2 ) ( 3 4 ) ]
L:1/8
Q:1/4=105
M:2/2
K:C
V:1 treble transpose=5 nm="Midi_53"
V:2 treble transpose=5 
V:3 bass nm="Midi_53"
V:4 bass 
V:1
[K:F] G4 G4 F4 B4 | (A2 G2) A4 G8 | G4 B4 c4 B4 | c4 d4 B8 | B4 c4 d4 B4 | c4 A4 G8 | G4 G4 F4 B4 | %7
w: Nun komm der Hei-|den * Hei- land,|der Jung- frau- en|Kind er- kannt,|dass sich wun- der|al- le Welt,|Gott solch Ge- burt|
w: ||||Gott von Art und|Mensch, ein Held;|sein' Weg er zu|
w: Sein Lauf kam vom|Va * ter her|und kehrt wie- der|zum Va- ter,|fuhr hin- un- ter|zu der Höll|und wie- der zu|
w: Dein Krip- pen glänzt|hell * und klar,|die Nacht gibt ein|neu Licht dar.|Dun- kel muß nicht|kom- men drein,|der Glaub bleibt im-|
w: Lob sei Gott dem|Va * ter g'tan;|Lob sei Gott sei'm|ein'- gen Sohn,|Lob sei Gott dem|Heil- gen Geist|im- mer und in|
 (A2 G4) ^F2 G8 |] %8
w: ihm * be- stellt.|
w: lau \- fen eilt.|
w: Got \- tes Stuhl.|
w: mer * im Schein.|
w: E \- wig- keit|
V:2
[K:F] D4 C4 D4 F4 | (_E2 B,2) D4 D8 | D4 (G3 F) _E4 D4 | F4 F4 _E8 | D4 F4 F4 _E4 | _E4 D4 D8 | %6
w: ||||||
w: Er ging aus der|Kam * mer sein,|dem kö- nig- li- chen|Saal so rein,|||
 _E4 C4 D4 F4 | _E4 D4 D8 |] %8
w: ||
w: ||
V:3
[K:F] =B,4 C4 A,4 D4 | (C2 G,4) ^F,2 G,8 | B,4 G,4 G,4 G,4 | A,4 B,4 G,8 | G,4 A,4 B,4 G,4 | %5
 (A,2 G,4) ^F,2 G,8 | G,4 G,4 A,4 D4 | (C2 B,2) A,4 G,8 |] %8
V:4
[K:F] G,4 _E,4 D,4 B,,4 | (C,2 _E,2) D,4 G,,8 | G,4 (_E,3 D,) C,4 G,4 | F,4 B,,4 _E,8 | %4
 G,4 F,4 B,,4 _E,4 | C,4 D,4 G,,8 | C,4 _E,4 D,4 B,,4 | C,4 D,4 G,,8 |] %8

